X:516
T:Ladies From Hell, The 
C:Joe Buchanan's Scottish Tome - Page 001.2
I:001 2
C:James MacMillan Tait
R:Reel
Z:Carl Allison
L:1/8
M:2/4
K:G
d | BG Gg/a/ | gG  de/d/ | BA Bd  | f2 ef/g/ |
a>f ab  | g/>f/e/>d/ ef/g/ | BA/B/ B/<G/B/<d/ | e2 e  :|
g/e/2 | Be e/2>f/2e/2>d/2 | Be eg/2e/2 | dB B/2>A/2B/2>d/2 | e2 ef/2g/2 |
a>e ga | g/2>f/2e/2>d/2 ef/2g/2 | BA/2B/2 B/2>G/2B/2>d/2 | e2 e |
g| GB B/2>e/2d/2>c/2 | BG Gg | GB g/2>f/2e/2>d/2 | d2 ef/2g/2 |
a/>g/f/>e/ g/>f/e/>d/ | e/>f/g/>e/ ae/d/ | BA/B/ B/>G/B/>d/ | e2 e  |

